;FLAVOR:Marlin
;TIME:472
;Filament used: 0.250909m
;Layer height: 0.2
;Generated with Cura_SteamEngine 4.0.0-BETA
M140 S55
M105
M190 S55
M104 S212
M105
M109 S212
M82 ;absolute extrusion mode
G21 ;metric values
 G90 ;absolute positioning
 M82 ;set extruder to absolute mode
 M107 ;start with the fan off
 G28 X0 Y0 ;move X/Y to min endstops
 G28 Z0 ;move Z to min endstops
 G1 Z15.0 F120 ;move the platform down 15mm
 G92 E0 ;zero the extruded length
 G1 F200 E6 ;extrude 6 mm of feed stock
 G92 E0 ;zero the extruded length again
 G1 F120 
 ;Put printing message on LCD screen
 M117 Printing...
G92 E0
G1 F1500 E-4
;LAYER_COUNT:80
;LAYER:0
M107
G0 F3600 X99.85 Y97.5 Z0.3
;TYPE:SUPPORT
G1 F1500 E0
G1 F1200 X105.809 Y97.5 E0.2973
G1 X105.885 Y97.531 E0.30139
G1 X105.969 Y97.615 E0.30732
G1 X106 Y97.691 E0.31141
G1 X106 Y102.306 E0.54166
G1 X105.968 Y102.385 E0.54591
G1 X105.884 Y102.469 E0.55183
G1 X105.808 Y102.5 E0.55593
G1 X99.85 Y102.5 E0.85318
G1 X99.85 Y97.5 E1.10263
G0 F3600 X100.01 Y98.679
G1 F1200 X105.839 Y98.679 E1.39344
G0 F3600 X104.013 Y97.662
G1 F1200 X104.013 Y102.34 E1.62682
G0 F3600 X105.838 Y101.346
G1 F1200 X100.01 Y101.346 E1.91758
G0 F3600 X101.346 Y102.34
G1 F1200 X101.346 Y97.661 E2.15102
G1 F1500 E-1.84898
;MESH:hook.stl
G0 F3600 X99.615 Y97.661
G0 X98.33 Y97.661
G0 X98.28 Y103.78
G0 X98.35 Y103.85
;TYPE:WALL-INNER
G1 F1500 E2.15102
G1 F1200 X94.65 Y103.85 E2.33561
G1 X94.65 Y96.15 E2.71977
G1 X98.35 Y96.15 E2.90436
G1 X98.35 Y103.85 E3.28852
G0 F3600 X98.28 Y103.78
G0 X98.28 Y96.22
G0 X98.75 Y95.782
;TYPE:WALL-OUTER
G1 F1200 X98.75 Y104.218 E3.70939
G1 X98.718 Y104.25 E3.71165
G1 X94.282 Y104.25 E3.93296
G1 X94.25 Y104.218 E3.93522
G1 X94.25 Y95.782 E4.35609
G1 X94.282 Y95.75 E4.35835
G1 X98.718 Y95.75 E4.57966
G1 X98.75 Y95.782 E4.58192
G0 F3600 X98.75 Y95.982
G0 X97.96 Y96.54
;TYPE:SKIN
G1 F1200 X97.96 Y103.46 E4.92716
G1 X95.04 Y103.46 E5.07284
G1 X95.04 Y96.54 E5.41808
G1 X97.96 Y96.54 E5.56376
G0 F3600 X97.779 Y97.213
G1 F1200 X97.285 Y96.72 E5.59858
G0 F3600 X96.72 Y96.72
G1 F1200 X97.779 Y97.779 E5.6733
G0 F3600 X97.779 Y98.345
G1 F1200 X96.154 Y96.72 E5.78795
G0 F3600 X95.588 Y96.72
G1 F1200 X97.779 Y98.91 E5.9425
G0 F3600 X97.779 Y99.476
G1 F1200 X95.219 Y96.916 E6.12312
G0 F3600 X95.219 Y97.482
G1 F1200 X97.779 Y100.042 E6.30374
G0 F3600 X97.779 Y100.607
G1 F1200 X95.219 Y98.048 E6.48433
G0 F3600 X95.219 Y98.613
G1 F1200 X97.779 Y101.173 E6.66495
G0 F3600 X97.779 Y101.739
G1 F1200 X95.219 Y99.179 E6.84557
G0 F3600 X95.219 Y99.745
G1 F1200 X97.779 Y102.304 E7.02616
G0 F3600 X97.779 Y102.87
G1 F1200 X95.219 Y100.31 E7.20678
G0 F3600 X95.219 Y100.876
G1 F1200 X97.622 Y103.279 E7.37633
G0 F3600 X97.056 Y103.279
G1 F1200 X95.219 Y101.442 E7.50594
G0 F3600 X95.219 Y102.007
G1 F1200 X96.491 Y103.279 E7.59568
G0 F3600 X95.925 Y103.279
G1 F1200 X95.219 Y102.573 E7.6455
G0 F3600 X95.219 Y103.139
G1 F1200 X95.359 Y103.279 E7.65537
G1 F1500 E3.65537
;MESH:NONMESH
G0 F3600 X98.33 Y97.5
G0 X99.615 Y97.5
G0 X101.346 Y97.5
;TIME_ELAPSED:17.462022
;LAYER:1
M140 S55
M106 S255
G0 F5400 X101.346 Y97.5 Z0.5
;TYPE:SUPPORT
G1 F1500 E7.65537
G1 F1800 X99.9 Y97.5 E7.70347
G1 X99.9 Y102.5 E7.86977
G1 X101.346 Y102.5 E7.91786
G1 X101.346 Y97.5 E8.08416
G1 X104.013 Y97.5 E8.17287
G1 X104.013 Y102.5 E8.33917
G1 X105.807 Y102.5 E8.39884
G1 X105.883 Y102.469 E8.40157
G1 X105.968 Y102.384 E8.40557
G1 X106 Y102.305 E8.4084
G1 X106 Y97.692 E8.56183
G1 X105.969 Y97.616 E8.56456
G1 X105.884 Y97.531 E8.56856
G1 X105.808 Y97.5 E8.57129
G1 X104.013 Y97.5 E8.63099
G1 F1500 E4.63099
;MESH:hook.stl
G0 F5400 X99.665 Y97.5
G0 X98.38 Y97.5
G0 X98.33 Y103.83
G0 X98.4 Y103.9
;TYPE:WALL-INNER
G1 F1500 E8.63099
G1 F1800 X94.6 Y103.9 E8.75738
G1 X94.6 Y96.1 E9.01681
G1 X98.4 Y96.1 E9.1432
G1 X98.4 Y103.9 E9.40263
G0 F5400 X98.33 Y103.83
G0 X98.33 Y96.17
G0 X98.8 Y95.782
;TYPE:WALL-OUTER
G1 F1200 X98.8 Y104.218 E9.68321
G1 X98.718 Y104.3 E9.68706
G1 X94.282 Y104.3 E9.83461
G1 X94.2 Y104.218 E9.83846
G1 X94.2 Y95.782 E10.11905
G1 X94.282 Y95.7 E10.1229
G1 X98.718 Y95.7 E10.27045
G1 X98.8 Y95.782 E10.2743
G0 F5400 X98.8 Y95.982
G0 X98.01 Y96.49
;TYPE:SKIN
G1 F1200 X98.01 Y103.51 E10.50779
G1 X94.99 Y103.51 E10.60823
G1 X94.99 Y96.49 E10.84172
G1 X98.01 Y96.49 E10.94217
G0 F5400 X95.17 Y97.162
G1 F1200 X95.663 Y96.669 E10.96536
G0 F5400 X96.229 Y96.669
G1 F1200 X95.17 Y97.728 E11.01517
G0 F5400 X95.17 Y98.294
G1 F1200 X96.795 Y96.669 E11.0916
G0 F5400 X97.36 Y96.669
G1 F1200 X95.17 Y98.859 E11.19461
G0 F5400 X95.17 Y99.425
G1 F1200 X97.829 Y96.766 E11.31968
G0 F5400 X97.829 Y97.331
G1 F1200 X95.17 Y99.991 E11.44478
G0 F5400 X95.17 Y100.556
G1 F1200 X97.829 Y97.897 E11.56985
G0 F5400 X97.829 Y98.463
G1 F1200 X95.17 Y101.122 E11.69492
G0 F5400 X95.17 Y101.688
G1 F1200 X97.829 Y99.028 E11.82002
G0 F5400 X97.829 Y99.594
G1 F1200 X95.17 Y102.254 E11.94511
G0 F5400 X95.17 Y102.819
G1 F1200 X97.829 Y100.16 E12.07018
G0 F5400 X97.829 Y100.725
G1 F1200 X95.226 Y103.329 E12.19264
G0 F5400 X95.791 Y103.329
G1 F1200 X97.829 Y101.291 E12.2885
G0 F5400 X97.829 Y101.857
G1 F1200 X96.357 Y103.329 E12.35774
G0 F5400 X96.923 Y103.329
G1 F1200 X97.829 Y102.423 E12.40036
G0 F5400 X97.829 Y102.988
G1 F1200 X97.488 Y103.329 E12.4164
G1 F1500 E8.4164
;MESH:NONMESH
G0 F5400 X98.38 Y97.5
G0 X99.665 Y97.5
G0 X101.346 Y97.5
;TIME_ELAPSED:25.120519
;LAYER:2
G0 F7200 X101.346 Y97.5 Z0.7
;TYPE:SUPPORT
G1 F1500 E12.4164
G1 F2400 X99.9 Y97.5 E12.46449
G1 X99.9 Y102.5 E12.63079
G1 X101.346 Y102.5 E12.67889
G1 X101.346 Y97.5 E12.84519
G1 X104.013 Y97.5 E12.93389
G1 X104.013 Y102.5 E13.10019
G1 X105.806 Y102.5 E13.15983
G1 X105.882 Y102.469 E13.16256
G1 X105.968 Y102.383 E13.1666
G1 X106 Y102.304 E13.16944
G1 X106 Y97.693 E13.3228
G1 X105.969 Y97.617 E13.32553
G1 X105.883 Y97.531 E13.32958
G1 X105.807 Y97.5 E13.33231
G1 X104.013 Y97.5 E13.39197
G1 F1500 E9.39197
;MESH:hook.stl
G0 F7200 X99.665 Y97.5
G0 X98.38 Y97.5
G0 X98.33 Y103.83
G0 X98.4 Y103.9
;TYPE:WALL-INNER
G1 F1500 E13.39197
G1 F2400 X94.6 Y103.9 E13.51836
G1 X94.6 Y96.1 E13.77779
G1 X98.4 Y96.1 E13.90418
G1 X98.4 Y103.9 E14.16361
G0 F7200 X98.33 Y103.83
G0 X98.33 Y96.17
G0 X98.8 Y95.782
;TYPE:WALL-OUTER
G1 F1200 X98.8 Y104.218 E14.44419
G1 X98.718 Y104.3 E14.44805
G1 X94.282 Y104.3 E14.59559
G1 X94.2 Y104.218 E14.59945
G1 X94.2 Y95.782 E14.88003
G1 X94.282 Y95.7 E14.88389
G1 X98.718 Y95.7 E15.03143
G1 X98.8 Y95.782 E15.03529
G0 F7200 X98.8 Y95.982
G0 X98.01 Y96.49
;TYPE:SKIN
G1 F1200 X98.01 Y103.51 E15.26877
G1 X94.99 Y103.51 E15.36922
G1 X94.99 Y96.49 E15.6027
G1 X98.01 Y96.49 E15.70315
G0 F7200 X97.829 Y97.263
G1 F1200 X97.235 Y96.669 E15.73109
G0 F7200 X96.669 Y96.669
G1 F1200 X97.829 Y97.829 E15.78565
G0 F7200 X97.829 Y98.395
G1 F1200 X96.104 Y96.669 E15.86681
G0 F7200 X95.538 Y96.669
G1 F1200 X97.829 Y98.961 E15.9746
G0 F7200 X97.829 Y99.526
G1 F1200 X95.17 Y96.867 E16.09967
G0 F7200 X95.17 Y97.432
G1 F1200 X97.829 Y100.092 E16.22477
G0 F7200 X97.829 Y100.658
G1 F1200 X95.17 Y97.998 E16.34986
G0 F7200 X95.17 Y98.564
G1 F1200 X97.829 Y101.223 E16.47493
G0 F7200 X97.829 Y101.789
G1 F1200 X95.17 Y99.13 E16.6
G0 F7200 X95.17 Y99.695
G1 F1200 X97.829 Y102.355 E16.7251
G0 F7200 X97.829 Y102.92
G1 F1200 X95.17 Y100.261 E16.85017
G0 F7200 X95.17 Y100.827
G1 F1200 X97.671 Y103.328 E16.96781
G0 F7200 X97.106 Y103.328
G1 F1200 X95.17 Y101.392 E17.05887
G0 F7200 X95.17 Y101.958
G1 F1200 X96.54 Y103.328 E17.12331
G0 F7200 X95.974 Y103.328
G1 F1200 X95.17 Y102.524 E17.16113
G0 F7200 X95.17 Y103.089
G1 F1200 X95.409 Y103.328 E17.17237
G1 F1500 E13.17237
;MESH:NONMESH
G0 F7200 X98.38 Y97.5
G0 X99.665 Y97.5
G0 X101.346 Y97.5
;TIME_ELAPSED:32.297202
;LAYER:3
G0 X101.346 Y97.5 Z0.9
;TYPE:SUPPORT
G1 F1500 E17.17237
G1 F2400 X99.9 Y97.5 E17.22047
G1 X99.9 Y102.5 E17.38677
G1 X101.346 Y102.5 E17.43486
G1 X101.346 Y97.5 E17.60116
G1 X104.013 Y97.5 E17.68987
G1 X104.013 Y102.5 E17.85617
G1 X105.805 Y102.5 E17.91577
G1 X105.881 Y102.469 E17.9185
G1 X105.968 Y102.382 E17.92259
G1 X106 Y102.303 E17.92543
G1 X106 Y97.694 E18.07872
G1 X105.969 Y97.618 E18.08145
G1 X105.882 Y97.531 E18.08554
G1 X105.806 Y97.5 E18.08827
G1 X104.013 Y97.5 E18.14791
G1 F1500 E14.14791
;MESH:hook.stl
G0 F7200 X99.665 Y97.5
G0 X98.38 Y97.5
G0 X98.33 Y103.83
G0 X98.4 Y103.9
;TYPE:WALL-INNER
G1 F1500 E18.14791
G1 F2400 X94.6 Y103.9 E18.2743
G1 X94.6 Y96.1 E18.53373
G1 X98.4 Y96.1 E18.66012
G1 X98.4 Y103.9 E18.91955
G0 F7200 X98.33 Y103.83
G0 X98.33 Y96.17
G0 X98.8 Y95.782
;TYPE:WALL-OUTER
G1 F1200 X98.8 Y104.218 E19.20013
G1 X98.718 Y104.3 E19.20398
G1 X94.282 Y104.3 E19.35153
G1 X94.2 Y104.218 E19.35538
G1 X94.2 Y95.782 E19.63597
G1 X94.282 Y95.7 E19.63982
G1 X98.718 Y95.7 E19.78737
G1 X98.8 Y95.782 E19.79122
G0 F7200 X98.8 Y95.982
G0 X98.01 Y96.49
;TYPE:SKIN
G1 F1200 X98.01 Y103.51 E20.02471
G1 X94.99 Y103.51 E20.12515
G1 X94.99 Y96.49 E20.35864
G1 X98.01 Y96.49 E20.45909
G0 F7200 X95.17 Y97.162
G1 F1200 X95.663 Y96.669 E20.48227
G0 F7200 X96.229 Y96.669
G1 F1200 X95.17 Y97.728 E20.53209
G0 F7200 X95.17 Y98.294
G1 F1200 X96.795 Y96.669 E20.60852
G0 F7200 X97.36 Y96.669
G1 F1200 X95.17 Y98.859 E20.71153
G0 F7200 X95.17 Y99.425
G1 F1200 X97.829 Y96.766 E20.8366
G0 F7200 X97.829 Y97.331
G1 F1200 X95.17 Y99.991 E20.9617
G0 F7200 X95.17 Y100.556
G1 F1200 X97.829 Y97.897 E21.08677
G0 F7200 X97.829 Y98.463
G1 F1200 X95.17 Y101.122 E21.21184
G0 F7200 X95.17 Y101.688
G1 F1200 X97.829 Y99.028 E21.33694
G0 F7200 X97.829 Y99.594
G1 F1200 X95.17 Y102.254 E21.46203
G0 F7200 X95.17 Y102.819
G1 F1200 X97.829 Y100.16 E21.5871
G0 F7200 X97.829 Y100.725
G1 F1200 X95.226 Y103.329 E21.70956
G0 F7200 X95.791 Y103.329
G1 F1200 X97.829 Y101.291 E21.80542
G0 F7200 X97.829 Y101.857
G1 F1200 X96.357 Y103.329 E21.87466
G0 F7200 X96.923 Y103.329
G1 F1200 X97.829 Y102.423 E21.91728
G0 F7200 X97.829 Y102.988
G1 F1200 X97.488 Y103.329 E21.93332
G1 F1500 E17.93332
;MESH:NONMESH
G0 F7200 X98.38 Y97.5
G0 X99.665 Y97.5
G0 X101.346 Y97.5
;TIME_ELAPSED:39.503549
;LAYER:4
G0 X101.346 Y97.5 Z1.1
;TYPE:SUPPORT
G1 F1500 E21.93332
G1 F1728.3 X99.9 Y97.5 E21.98141
G1 X99.9 Y102.5 E22.14771
G1 X101.346 Y102.5 E22.19581
G1 X101.346 Y97.5 E22.36211
G1 X104.013 Y97.5 E22.45081
G1 X104.013 Y102.5 E22.61711
G1 X105.804 Y102.5 E22.67668
G1 X105.88 Y102.469 E22.67941
G1 X105.968 Y102.381 E22.68355
G1 X106 Y102.302 E22.68639
G1 X106 Y97.695 E22.83961
G1 X105.969 Y97.619 E22.84234
G1 X105.881 Y97.531 E22.84648
G1 X105.805 Y97.5 E22.84921
G1 X104.013 Y97.5 E22.90882
G1 F1500 E18.90882
;MESH:hook.stl
G0 F7200 X99.665 Y97.5
G0 X98.38 Y97.5
G0 X98.239 Y98.239
;TYPE:FILL
G1 F1500 E22.90882
G1 F1728.3 X96.259 Y96.259 E23.00195
G1 X96.189 Y96.189
G0 F7200 X96.189 Y96.2
G0 X94.76 Y96.376
G1 F1728.3 X98.239 Y99.856 E23.16561
G1 X98.309 Y99.926
G0 F7200 X98.3 Y99.926
G0 X98.239 Y101.472
G1 F1728.3 X94.76 Y97.992 E23.32928
G1 X94.69 Y97.922
G0 F7200 X94.7 Y97.922
G0 X94.76 Y99.609
G1 F1728.3 X98.239 Y103.089 E23.49294
G1 X98.309 Y103.159
G0 F7200 X98.3 Y103.159
G0 X97.273 Y103.738
G1 F1728.3 X94.76 Y101.225 E23.61115
G1 X94.69 Y101.155
G0 F7200 X94.7 Y101.155
G0 X94.76 Y102.842
G1 F1728.3 X95.656 Y103.738 E23.65329
G1 X95.726 Y103.808
G0 F7200 X95.726 Y103.8
G0 X98.239 Y96.623
G1 F1728.3 X97.876 Y96.259 E23.67039
G0 F7200 X98.33 Y103.83
G0 X98.4 Y103.9
;TYPE:WALL-INNER
G1 F1728.3 X94.6 Y103.9 E23.79678
G1 X94.6 Y96.1 E24.05621
G1 X98.4 Y96.1 E24.1826
G1 X98.4 Y103.9 E24.44203
G0 F7200 X98.33 Y103.83
G0 X98.33 Y96.17
G0 X98.8 Y95.782
;TYPE:WALL-OUTER
G1 F864.1 X98.8 Y104.218 E24.72261
G1 X98.718 Y104.3 E24.72647
G1 X94.282 Y104.3 E24.87401
G1 X94.2 Y104.218 E24.87786
G1 X94.2 Y95.782 E25.15845
G1 X94.282 Y95.7 E25.1623
G1 X98.718 Y95.7 E25.30985
G1 X98.8 Y95.782 E25.3137
G0 F7200 X98.8 Y95.982
G0 X98 Y96.382
G1 F1500 E21.3137
;MESH:NONMESH
G0 F7200 X98.38 Y97.5
G0 X99.665 Y97.5
G0 X101.346 Y97.5
;TIME_ELAPSED:45.201470
;LAYER:5
G0 X101.346 Y97.5 Z1.3
;TYPE:SUPPORT
G1 F1500 E25.3137
G1 F1713 X99.9 Y97.5 E25.3618
G1 X99.9 Y102.5 E25.5281
G1 X101.346 Y102.5 E25.57619
G1 X101.346 Y97.5 E25.74249
G1 X104.013 Y97.5 E25.8312
G1 X104.013 Y102.5 E25.9975
G1 X105.803 Y102.5 E26.05703
G1 X105.879 Y102.469 E26.05976
G1 X105.968 Y102.38 E26.06395
G1 X106 Y102.301 E26.06679
G1 X106 Y97.696 E26.21995
G1 X105.969 Y97.62 E26.22268
G1 X105.88 Y97.531 E26.22686
G1 X105.804 Y97.5 E26.22959
G1 X104.013 Y97.5 E26.28916
G1 F1500 E22.28916
;MESH:hook.stl
G0 F7200 X99.665 Y97.5
G0 X98.38 Y97.5
G0 X98.239 Y96.91
;TYPE:FILL
G1 F1500 E26.28916
G1 F1713 X94.76 Y100.39 E26.45283
G1 X94.69 Y100.46
G0 F7200 X94.7 Y100.46
G0 X94.76 Y102.006
G1 F1713 X98.239 Y98.526 E26.61649
G1 X98.309 Y98.456
G0 F7200 X98.3 Y98.456
G0 X98.239 Y100.143
G1 F1713 X94.76 Y103.622 E26.78013
G1 X94.69 Y103.692
G0 F7200 X94.7 Y103.692
G0 X96.259 Y103.739
G1 F1713 X98.239 Y101.759 E26.87327
G1 X98.309 Y101.689
G0 F7200 X98.3 Y101.689
G0 X98.239 Y103.376
G1 F1713 X97.876 Y103.739 E26.89034
G0 F7200 X94.76 Y98.773
G1 F1713 X97.274 Y96.259 E27.00859
G1 X97.344 Y96.189
G0 F7200 X97.344 Y96.2
G0 X95.658 Y96.259
G1 F1713 X94.76 Y97.157 E27.05083
G1 X94.69 Y97.227
G0 F7200 X94.7 Y97.227
G0 X98.33 Y103.83
G0 X98.4 Y103.9
;TYPE:WALL-INNER
G1 F1713 X94.6 Y103.9 E27.17722
G1 X94.6 Y96.1 E27.43665
G1 X98.4 Y96.1 E27.56304
G1 X98.4 Y103.9 E27.82247
G0 F7200 X98.33 Y103.83
G0 X98.33 Y96.17
G0 X98.8 Y95.782
;TYPE:WALL-OUTER
G1 F856.5 X98.8 Y104.218 E28.10305
G1 X98.718 Y104.3 E28.10691
G1 X94.282 Y104.3 E28.25445
G1 X94.2 Y104.218 E28.25831
G1 X94.2 Y95.782 E28.53889
G1 X94.282 Y95.7 E28.54275
G1 X98.718 Y95.7 E28.69029
G1 X98.8 Y95.782 E28.69414
G0 F7200 X98.8 Y95.982
G0 X98 Y96.382
G1 F1500 E24.69414
;MESH:NONMESH
G0 F7200 X98.38 Y97.5
G0 X99.665 Y97.5
G0 X101.346 Y97.5
;TIME_ELAPSED:50.927454
;LAYER:6
G0 X101.346 Y97.5 Z1.5
;TYPE:SUPPORT
G1 F1500 E28.69414
G1 F1717.1 X99.9 Y97.5 E28.74224
G1 X99.9 Y102.5 E28.90854
G1 X101.346 Y102.5 E28.95663
G1 X101.346 Y97.5 E29.12293
G1 X104.013 Y97.5 E29.21164
G1 X104.013 Y102.5 E29.37794
G1 X105.802 Y102.5 E29.43744
G1 X105.878 Y102.469 E29.44017
G1 X105.968 Y102.379 E29.44441
G1 X106 Y102.3 E29.44724
G1 X106 Y97.697 E29.60034
G1 X105.969 Y97.621 E29.60307
G1 X105.879 Y97.531 E29.6073
G1 X105.803 Y97.5 E29.61003
G1 X104.013 Y97.5 E29.66957
G1 F1500 E25.66957
;MESH:hook.stl
G0 F7200 X99.665 Y97.5
G0 X98.38 Y97.5
G0 X98.239 Y98.239
;TYPE:FILL
G1 F1500 E29.66957
G1 F1717.1 X96.259 Y96.259 E29.7627
G1 X96.189 Y96.189
G0 F7200 X96.189 Y96.2
G0 X94.76 Y96.376
G1 F1717.1 X98.239 Y99.856 E29.92636
G1 X98.309 Y99.926
G0 F7200 X98.3 Y99.926
G0 X98.239 Y101.472
G1 F1717.1 X94.76 Y97.992 E30.09003
G1 X94.69 Y97.922
G0 F7200 X94.7 Y97.922
G0 X94.76 Y99.609
G1 F1717.1 X98.239 Y103.089 E30.25369
G1 X98.309 Y103.159
G0 F7200 X98.3 Y103.159
G0 X97.273 Y103.738
G1 F1717.1 X94.76 Y101.225 E30.3719
G1 X94.69 Y101.155
G0 F7200 X94.7 Y101.155
G0 X94.76 Y102.842
G1 F1717.1 X95.656 Y103.738 E30.41404
G1 X95.726 Y103.808
G0 F7200 X95.726 Y103.8
G0 X98.239 Y96.623
G1 F1717.1 X97.876 Y96.259 E30.43114
G0 F7200 X98.33 Y103.83
G0 X98.4 Y103.9
;TYPE:WALL-INNER
G1 F1717.1 X94.6 Y103.9 E30.55753
G1 X94.6 Y96.1 E30.81696
G1 X98.4 Y96.1 E30.94335
G1 X98.4 Y103.9 E31.20278
G0 F7200 X98.33 Y103.83
G0 X98.33 Y96.17
G0 X98.8 Y95.782
;TYPE:WALL-OUTER
G1 F858.6 X98.8 Y104.218 E31.48336
G1 X98.718 Y104.3 E31.48722
G1 X94.282 Y104.3 E31.63476
G1 X94.2 Y104.218 E31.63861
G1 X94.2 Y95.782 E31.9192
G1 X94.282 Y95.7 E31.92305
G1 X98.718 Y95.7 E32.0706
G1 X98.8 Y95.782 E32.07445
G0 F7200 X98.8 Y95.982
G0 X98 Y96.382
G1 F1500 E28.07445
;MESH:NONMESH
G0 F7200 X98.38 Y97.5
G0 X99.665 Y97.5
G0 X101.346 Y97.5
;TIME_ELAPSED:56.653675
;LAYER:7
G0 X101.346 Y97.5 Z1.7
;TYPE:SUPPORT
G1 F1500 E32.07445
G1 F1713 X99.9 Y97.5 E32.12255
G1 X99.9 Y102.5 E32.28885
G1 X101.346 Y102.5 E32.33694
G1 X101.346 Y97.5 E32.50324
G1 X104.013 Y97.5 E32.59195
G1 X104.013 Y102.5 E32.75825
G1 X105.801 Y102.5 E32.81772
G1 X105.877 Y102.469 E32.82045
G1 X105.968 Y102.378 E32.82473
G1 X106 Y102.299 E32.82756
G1 X106 Y97.698 E32.98059
G1 X105.969 Y97.622 E32.98332
G1 X105.878 Y97.531 E32.9876
G1 X105.802 Y97.5 E32.99033
G1 X104.013 Y97.5 E33.04983
G1 F1500 E29.04983
;MESH:hook.stl
G0 F7200 X99.665 Y97.5
